icons/linear-new-symbol-cloud-arrow-down-data-download.svg

<svg xmlns="http://www.w3.org/2000/svg" width="32px" height="32px" viewBox="0 0 32 32" version="1.1">
    <title>linear-new-symbol-cloud-arrow-down-data-download</title>
    <g id="linear-new-symbol-cloud-arrow-down-data-download" stroke-width="1" fill-rule="evenodd">
        <path d="M16,14 C16.5522847,14 17,14.4477153 17,15 L17,26.585 L19.2928932,24.2928932 C19.6533772,23.9324093 20.2206082,23.9046797 20.6128994,24.2097046 L20.7071068,24.2928932 C21.0976311,24.6834175 21.0976311,25.3165825 20.7071068,25.7071068 L16.7071068,29.7071068 C16.3165825,30.0976311 15.6834175,30.0976311 15.2928932,29.7071068 L11.2928932,25.7071068 C10.9023689,25.3165825 10.9023689,24.6834175 11.2928932,24.2928932 L11.3871006,24.2097046 C11.7793918,23.9046797 12.3466228,23.9324093 12.7071068,24.2928932 L15,26.585 L15,15 C15,14.4477153 15.4477153,14 16,14 Z M16,3 C19.056655,3 21.7364736,4.61342843 23.2342797,7.03510916 C27.0313334,7.40397926 30,10.605305 30,14.5 C30,18.6421356 26.6421356,22 22.5,22 L20,22 L20,20 L22.5,20 L22.7212071,19.9956328 C25.65622,19.8795391 28,17.4634791 28,14.5 L27.9951358,14.2665671 L27.9755806,13.978308 L27.9554878,13.7969603 L27.9133444,13.5222121 L27.8630981,13.2750747 L27.8070029,13.0505501 L27.7419412,12.8301769 C27.7034226,12.7091309 27.6607205,12.5896339 27.6140857,12.4721255 C27.5577658,12.3302034 27.4956813,12.1911313 27.4281331,12.0552318 L27.3074055,11.8260848 L27.1472685,11.5571055 L26.9886476,11.3208593 L26.7614055,11.0226043 L26.5850043,10.8171697 L26.3930758,10.6149053 L26.2988456,10.5227055 L26.1545104,10.3896234 L25.9282909,10.1989413 L25.7050467,10.0298474 L25.5250489,9.90589493 L25.2189725,9.71798823 L25.0399008,9.62031324 L24.8243654,9.5138435 L24.6079019,9.41840892 C23.9585653,9.14878404 23.2466578,9 22.5,9 C22.3350193,9 22.1717352,9.00726406 22.0111652,9.02248869 C21.7307502,8.34286198 21.3384321,7.72118514 20.8571665,7.18041369 L20.783275,7.09878047 L20.6411456,6.94919861 L20.4340234,6.74693171 L20.165297,6.50974833 L19.9241396,6.31774359 L19.7052735,6.15879367 L19.4529922,5.99189355 L19.1750537,5.82678814 L18.8558423,5.65934742 L18.7069494,5.58867606 L18.4605716,5.48191948 L18.1641514,5.36894262 L17.907638,5.28440478 L17.621765,5.20393077 L17.3580459,5.14207417 L17.105038,5.09354572 L16.8220978,5.05149058 L16.5365558,5.02182807 L16.2612631,5.00515477 L16,5 C15.7366682,5 15.4769937,5.01565918 15.2218577,5.04609685 L15.0186779,5.07359111 L14.8051259,5.10958809 L14.4806461,5.1785336 L14.245284,5.23960674 L13.9202191,5.33984689 L13.6782264,5.42693011 L13.395916,5.54264284 L13.1785992,5.6426014 L12.8957906,5.78773646 L12.6521662,5.92732804 L12.525916,6.00531198 C12.3835501,6.09551241 12.2447128,6.19125263 12.1099229,6.29210316 L11.9201264,6.43961207 L11.6727627,6.64965332 C11.5132797,6.79211349 11.3611139,6.94201041 11.2165857,7.09904218 L11.0759666,7.25685731 L10.8330237,7.55579333 L10.6929869,7.7460053 L10.5360866,7.9778123 L10.4303573,8.14713607 C10.0813528,8.72616741 9.81972994,9.3647106 9.66455244,10.0437759 C9.44713694,10.0149026 9.22530881,10 9,10 C8.51348074,10 8.04319112,10.0694874 7.59851431,10.1990789 L7.53790107,10.2171634 C7.26665619,10.2999787 7.0052037,10.4052353 6.75570737,10.5307694 L6.47470066,10.683645 L6.25567915,10.8197713 L6.02398788,10.9817275 L5.79991846,11.1580303 L5.63510249,11.3016478 L5.50679128,11.4226386 L5.36870295,11.5628794 L5.33540683,11.5983869 C5.27537079,11.6630202 5.21666961,11.7296688 5.15975047,11.7978566 L5.04606352,11.9391582 C4.96449565,12.0443559 4.88694387,12.1530459 4.81372031,12.2648956 L4.67248064,12.4938393 L4.57899305,12.6623296 L4.44088501,12.944085 L4.3626809,13.126899 L4.28766099,13.3244413 L4.21371641,13.5492402 L4.15980354,13.7411685 L4.12198638,13.8973476 L4.08095189,14.0990691 L4.06411454,14.1971526 C4.04453362,14.3183976 4.02927178,14.4415692 4.01857045,14.5660438 C4.00625968,14.7094147 4,14.8539764 4,15 C4,15.0973305 4.00278102,15.1940114 4.00826792,15.2899677 L4.02092875,15.4605574 L4.03924486,15.6294844 C4.04770497,15.6967752 4.05741369,15.7631197 4.06841164,15.8290278 C4.08766045,15.9443813 4.11085853,16.0583981 4.13786219,16.1709344 C4.22892429,16.5504304 4.36326188,16.9130895 4.53536496,17.2534029 L4.6636473,17.4908779 L4.77998118,17.6828618 L4.92794528,17.9021174 L5.06730151,18.0880432 L5.27647955,18.3370432 L5.53766706,18.6072589 L5.6437496,18.706206 L5.87483574,18.9032252 L6.08835828,19.0652373 L6.29996225,19.2090272 L6.43698001,19.2940158 L6.70425321,19.4429672 L6.93205153,19.553661 L7.17956505,19.6582604 L7.47895934,19.7644387 L7.69661067,19.8284195 L7.92920026,19.8850731 L8.20114375,19.936528 C8.39164516,19.9671231 8.58589868,19.9869635 8.78311038,19.9953805 L9,20 L12,20 L12,22 L9,22 C5.13400675,22 2,18.8659932 2,15 C2,11.3931853 4.72788099,8.42350125 8.23305786,8.04153308 C9.55767395,5.07092246 12.536992,3 16,3 Z" id="&#24418;&#29366;" fill-rule="nonzero" />
    </g>
</svg>

<svg xmlns="http://www.w3.org/2000/svg" viewBox="0 0 32 32"><path fill="currentColor" d="M16 14a1 1 0 0 1 1 1v11.585l2.293-2.292a1 1 0 0 1 1.32-.083l.094.083a1 1 0 0 1 0 1.414l-4 4a1 1 0 0 1-1.414 0l-4-4a1 1 0 0 1 0-1.414l.094-.083a1 1 0 0 1 1.32.083L15 26.585V15a1 1 0 0 1 1-1m0-11a8.495 8.495 0 0 1 7.234 4.035A7.501 7.501 0 0 1 22.5 22H20v-2h2.5l.221-.004A5.5 5.5 0 0 0 28 14.5l-.005-.233-.02-.289-.02-.181-.042-.275-.05-.247-.056-.224-.065-.22a5.456 5.456 0 0 0-.314-.776l-.12-.229-.16-.269-.16-.236-.227-.298-.176-.206-.192-.202-.094-.092-.144-.133-.227-.191-.223-.17-.18-.123-.306-.188-.18-.098-.215-.106-.216-.096a5.484 5.484 0 0 0-2.597-.396 6.502 6.502 0 0 0-1.154-1.842l-.074-.081-.142-.15-.207-.202-.269-.237-.24-.192-.22-.16-.252-.166-.278-.165-.32-.168-.148-.07-.246-.107-.297-.113-.256-.085-.286-.08-.264-.062-.253-.048-.283-.043-.285-.03-.276-.016L16 5c-.263 0-.523.016-.778.046l-.203.028-.214.036-.324.069-.236.06-.325.1-.242.088-.282.116-.217.1-.283.145-.244.14-.126.077c-.142.09-.281.186-.416.287l-.19.148-.247.21c-.16.142-.312.292-.456.449l-.141.158-.243.299-.14.19-.157.232-.106.17a6.462 6.462 0 0 0-.765 1.896 5.046 5.046 0 0 0-2.066.155l-.061.018a4.967 4.967 0 0 0-.782.314l-.281.153-.22.136-.231.162-.224.176-.165.144-.128.12-.138.14-.034.036c-.06.065-.118.132-.175.2l-.114.141a5.01 5.01 0 0 0-.232.326l-.142.229-.093.168-.138.282-.078.183-.075.197-.074.225-.054.192-.038.156-.041.202-.017.098a5.003 5.003 0 0 0-.056 1.093l.013.17.018.17a5 5 0 0 0 .496 1.623l.129.238.116.192.148.22.14.185.208.249.262.27.106.1.23.196.214.162.212.144.137.085.267.149.228.11.248.105.299.106.218.064.232.057.272.052c.19.03.385.05.582.058L9 20h3v2H9a7 7 0 0 1-.767-13.958A8.502 8.502 0 0 1 16 3"/></svg>
